!!!COA:	Josquin des Prez
!!!CDT:	~1450-1521/08/27
!!!OTL@@FRE: Vivrai je tousjours
!!!AGN:	Chanson
!!!SCT:	NJE 28.37
!!!SCA:	New Josquin Edition 28.37
!!!voices:	4
**kern	**kern	**kern	**kern
*staff4	*staff3	*staff2	*staff1
*Ivox	*Ivox	*Ivox	*Ivox
*I"Bassus	*I"Tenor	*I"Altus	*I"Superius
*I'B	*I'T	*I'A	*I'S
*clefF4	*clefGv2	*clefGv2	*clefG2
*k[]	*k[]	*k[]	*k[]
*M2/1	*M2/1	*M2/1	*M2/1
*met(C|)	*met(C|)	*met(C|)	*met(C|)
=1-	=1-	=1-	=1-
0r	0r	0r	0d
=2	=2	=2	=2
0r	0r	0A	1a
.	.	.	2a/
.	.	.	2a/
=3	=3	=3	=3
0r	0r	1e	0g
.	.	2e\	.
.	.	2e\	.
=4	=4	=4	=4
0r	0D	2.d\	0dd
.	.	4e\	.
.	.	4f\	.
.	.	4e\	.
.	.	[2f\	.
=5	=5	=5	=5
0AA	1A	2f\]	1.cc
.	.	4e\	.
.	.	4d\	.
.	2A/	2e\	.
.	2A/	2f\	4b\
.	.	.	4a/
=6	=6	=6	=6
1E	0G	1g	1b
2E\	.	1e	1g
2E\	.	.	.
=7	=7	=7	=7
0D	0d	1.f	1a
.	.	.	2d/
.	.	2d\	[2a/
=8	=8	=8	=8
0A	0c	1e	4a/]
.	.	.	4b\
.	.	.	1cc
.	.	1f	.
.	.	.	4b\
.	.	.	4a/
=9	=9	=9	=9
1.G	1d	2g\	1b
.	.	2G/	.
.	1e	2.B\	1g
4F\	.	.	.
4E\	.	4c\	.
=10	=10	=10	=10
1.D	1.f	2d\	2.a/
.	.	2e\	.
.	.	.	4g/
.	.	2f\	4a/
.	.	.	4b\
2C/	2e\	[2g\	2cc\
=11	=11	=11	=11
2G\	2d\	2g\]	2b\
2A\	2c\	2f\	1a
2E\	1B	2e\	.
2G\	.	2d\	2g/
=12	=12	=12	=12
1D	0A	1f	[0a
2r	.	1e	.
2A\	.	.	.
=13	=13	=13	=13
1A	0r	2r	0a]
.	.	2e\	.
1A	.	1e	.
=14	=14	=14	=14
1.G	1r	1e	0r
.	2r	[1d	.
4F\	2d\	.	.
4E\	.	.	.
=15	=15	=15	=15
0D	1d	2d\]	2r
.	.	4c\	2a/
.	.	4B\	.
.	1d	1A	1a
=16	=16	=16	=16
2r	1.c	2A/	1a
2AA/	.	4G/	.
.	.	4F/	.
[1C	.	1E	[1g
.	4B\	.	.
.	4A/	.	.
=17	=17	=17	=17
1C]	1.G	1r	2g/]
.	.	.	4f/
.	.	.	4e/
[1BB-	.	[1B-	2d/
.	2D/	.	[2f/
=18	=18	=18	=18
1BB-]	1F	1B-]	2f/]
.	.	.	4e/
.	.	.	4d/
1GG	1G	1B-i	2e/
.	.	.	2d/
=19	=19	=19	=19
1.AA	1E	2.A/	1c
.	.	4B-i\	.
.	2F/	2c\	2A/
2GG/	[2G/	[2d\	[2B-i/
=20	=20	=20	=20
1BB-i	2G/]	4d\]	4B-/]
.	.	4c\	4c/
.	2F/	2B-i\	1d
1C	1E	1A	.
.	.	.	2c/
=21	=21	=21	=21
[0GG	1D	1G	0d
.	2.G/	1r	.
.	4A/	.	.
=22	=22	=22	=22
0GG]	0B	1d	1r
.	.	2d\	1g
.	.	2B\	.
=23	=23	=23	=23
0r	0r	2.c\	2g/
.	.	.	2e/
.	.	4B\	.
.	.	2A/	2.f/
.	.	[2d\	.
.	.	.	4e/
=24	=24	=24	=24
1G	0r	2d\]	1d
.	.	2d\	.
2G\	.	2B\	1r
2E\	.	[2c\	.
=25	=25	=25	=25
2.F\	1r	4c\]	1a
.	.	4B\	.
.	.	4A/	.
4E\	.	4G/	.
1D	1d	1A	2a/
.	.	.	2f/
=26	=26	=26	=26
1GG	2d\	2B\	2.g/
.	2B\	2.G/	.
.	.	.	4f/
1C	2.c\	.	1e
.	.	4F/	.
.	.	2E/	.
.	4B\	.	.
=27	=27	=27	=27
1D	1A	2.F/	2d/
.	.	.	2.f/
.	.	4G/	.
1AA	1c	[1A	.
.	.	.	4e/
.	.	.	2e/
=28	=28	=28	=28
1D	1d	2A/]	2d/
.	.	2F/	2.f/
1E	2B\	1G	.
.	.	.	4e/
.	[2c\	.	[2e/
=29	=29	=29	=29
1F	4c\]	0A	2e/]
.	4B\	.	.
.	4A/	.	4d/
.	4G/	.	4c/
1F	[1A	.	1d
=30	=30	=30	=30
0E	2A/]	0B	[0e
.	4G#i/	.	.
.	4F#i/	.	.
.	1G#i	.	.
=31	=31	=31	=31
1AA	0A	1.c	0e]
1r	.	.	.
.	.	2A/	.
=32	=32	=32	=32
1.A	0r	2.c\	1e
.	.	4d\	.
.	.	2e\	2r
2A\	.	2f\	[2cc\
=33	=33	=33	=33
1G	0r	2g\	2cc\]
.	.	2G/	2b\
1F	.	2.A/	1a
.	.	4B\	.
=34	=34	=34	=34
1.E	1.e	2c\	1g
.	.	2G/	.
.	.	[1g	2r
2C/	2e\	.	[2cc\
=35	=35	=35	=35
1G	1d	1g]	2cc\]
.	.	.	2b\
1A	1c	1e	1a
=36	=36	=36	=36
1E	1.B	1e	1.g
1G	.	2.d\	.
.	2G/	.	4f/
.	.	4c\	4e/
=37	=37	=37	=37
2.G\	1d	4B\	2d/
.	.	4A/	.
.	.	2B\	2.g/
4F\	.	.	.
2E\	1e	1c	.
.	.	.	4f/
2C/	.	.	2e/
=38	=38	=38	=38
1G	1B	2G/	1d
.	.	2.g\	.
1C	2.c\	.	1c
.	.	4f\	.
.	.	4e\	.
.	4B\	4d\	.
=39	=39	=39	=39
2.F\	2.A/	4c\	2r
.	.	4B\	.
.	.	2.A/	2c/
4E\	4G/	.	.
2D\	2F/	.	2d/
.	.	4F/	.
2C/	[2G/	4G/	[2e/
.	.	4A/	.
=40	=40	=40	=40
2BB-i/	2G/]	1B-i	4e/]
.	.	.	4d/
2GG/	2G/	.	1d
1AA	2.E/	1A	.
.	.	.	2c/
.	4F/	.	.
=41	=41	=41	=41
1GG	0G	0B	0d
1r	.	.	.
=42	=42	=42	=42
1.D	1F	2.A/	1r
.	.	4D/	.
.	1r	1d	1f
2D\	.	.	.
=43	=43	=43	=43
1E	0r	2c\	1g
.	.	2B\	.
1F	.	1A	1a
=44	=44	=44	=44
1.G	1.G	2.B\	1d
.	.	4c\	.
.	.	2d\	1g
2E\	2G/	2e\	.
=45	=45	=45	=45
1F	1A	1c	2.f/
.	.	.	4e/
1G	1B	2r	1d
.	.	[2g\	.
=46	=46	=46	=46
1C	1.c	4g\]	1e
.	.	4f\	.
.	.	1e	.
1F	.	.	2A/
.	2A/	2d\	[2a/
=47	=47	=47	=47
1E	1B	2.e\	2a/]
.	.	.	2g/
.	.	4g\	.
1A	1c	2f\	1a
.	.	[2e\	.
=48	=48	=48	=48
2G\	2B\	2e\]	0r
2F\	1A	1d	.
1E	.	.	.
.	2G/	2c#i\	.
=49	=49	=49	=49
1D	0A	2d\	2r
.	.	2.f\	2.a/
2r	.	.	.
.	.	4e\	4g/
[2A\	.	[2c\	2e/
=50	=50	=50	=50
2A\]	1r	2c\]	2f/
2G\	.	2d\	1g
2E\	2r	2e\	.
2F\	2c\	2A/	2a/
=51	=51	=51	=51
2D\	2d\	2r	2f/
1F	2c\	4A/	1a
.	.	4B\	.
.	2A/	4c\	.
.	.	4d\	.
2E\	2B\	[2e\	2g/
=52	=52	=52	=52
2C/	2c\	2e\]	2e/
2D\	1A	2d\	2f/
2F\	.	2c\	2a/
2E\	2B\	[2e\	[2g/
=53	=53	=53	=53
1C	2.c\	4e\]	4g/]
.	.	4d\	4e/
.	.	2e\	2g/
.	4B\	.	.
2D\	2A/	2d\	2f/
[2E\	[2G/	2B\	2e/
=54	=54	=54	=54
2E\]	2G/]	2c\	2g/
2.D\	2A/	2d\	2.f/
.	2.F/	2.A/	.
4C/	.	.	4d/
2D\	.	.	2f/
.	4G/	4B\	.
=55	=55	=55	=55
2C/	1A	0c	2e/
2AA/	.	.	2c/
2BB/	2.G/	.	2d/
2C/	.	.	2e/
.	4E/	.	.
=56	=56	=56	=56
2D\	2F/	2A/	4e/
.	.	.	4d/
2GG/	2G/	2B-i\	1d
1AA	1E	[1A	.
.	.	.	2c#i/
=57	=57	=57	=57
1.D	1D	2A/]	2d/
.	.	2.f\	2.a/
.	1A	.	.
.	.	4e\	4g/
[2A\	.	[2c\	2e/
=58	=58	=58	=58
2A\]	1r	2c\]	2f/
2G\	.	2d\	1g
2E\	2r	2e\	.
2F\	2c\	2A/	2a/
=59	=59	=59	=59
2D\	2d\	2r	2f/
1F	2c\	4A/	1a
.	.	4B\	.
.	2A/	4c\	.
.	.	4d\	.
2E\	2B\	[2e\	2g/
=60	=60	=60	=60
2C/	2c\	2e\]	2e/
2D\	1A	2d\	2f/
2F\	.	2c\	2a/
2E\	2B\	[2e\	[2g/
=61	=61	=61	=61
1C	2.c\	4e\]	4g/]
.	.	4d\	4e/
.	.	2e\	2g/
.	4B\	.	.
2D\	2A/	2d\	2f/
[2E\	[2G/	2B\	2e/
=62	=62	=62	=62
2E\]	2G/]	2c\	2g/
2.D\	2A/	2d\	2.f/
.	2.F/	2.A/	.
4C/	.	.	4d/
2D\	.	.	2f/
.	4G/	4B\	.
=63	=63	=63	=63
2C/	1A	0c	2e/
2AA/	.	.	2c/
2BB/	2.G/	.	2d/
2C/	.	.	[2e/
.	4E/	.	.
=64	=64	=64	=64
2D\	2F/	2A/	2e/]
2GG/	2G/	2B-i\	1d
1AA	1E	1A	.
.	.	.	2c#i/
=65	=65	=65	=65
0Dl	0Dl	0Al	0dl
==	==	==	==
*-	*-	*-	*-
!!!RDF**kern: l=long note in original notation
!!!RDF**kern: i=editorial accidental
!!!ENC:	Will Watson 18/08/2011
!!!END:	2011/08/18/
!!!EED:	Jesse Rodin
!!!EEV:	2011/09/21/
!!attribution-level@Jos: 4 (questionable)
!!!ONB:	Translated from MusicXML and edited on 2011/09/21/ by Craig Sapp
!!muse2ps: C^@{COA}?\n@{SCT}^i2I150v90,90,90,150Q16
